icons/solid/truck.svg

<svg width="24" height="24" viewBox="0 0 24 24" fill="none" xmlns="http://www.w3.org/2000/svg">
<path fill-rule="evenodd" clip-rule="evenodd" d="M2 5C2 4.44772 2.44772 4 3 4H13C13.5523 4 14 4.44772 14 5V7H17C17.2652 7 17.5196 7.10536 17.7071 7.29289L21.7071 11.2929C21.8946 11.4804 22 11.7348 22 12V17C22 17.5523 21.5523 18 21 18H19.8293C19.9398 17.6872 20 17.3506 20 17C20 15.3431 18.6569 14 17 14C15.3431 14 14 15.3431 14 17C14 17.3506 14.0602 17.6872 14.1707 18H9.82929C9.93985 17.6872 10 17.3506 10 17C10 15.3431 8.65685 14 7 14C5.34315 14 4 15.3431 4 17C4 17.3506 4.06015 17.6872 4.17071 18H3C2.44772 18 2 17.5523 2 17V5ZM9 17C9 18.1046 8.10457 19 7 19C5.89543 19 5 18.1046 5 17C5 15.8954 5.89543 15 7 15C8.10457 15 9 15.8954 9 17ZM17 19C18.1046 19 19 18.1046 19 17C19 15.8954 18.1046 15 17 15C15.8954 15 15 15.8954 15 17C15 18.1046 15.8954 19 17 19Z" fill="currentColor"/>
</svg>

<svg width="24" height="24" fill="none" xmlns="http://www.w3.org/2000/svg"><path fill-rule="evenodd" clip-rule="evenodd" d="M2 5a1 1 0 011-1h10a1 1 0 011 1v2h3a1 1 0 01.707.293l4 4A1 1 0 0122 12v5a1 1 0 01-1 1h-1.17a3 3 0 10-5.659 0H9.829a3 3 0 10-5.659 0H3a1 1 0 01-1-1V5zm7 12a2 2 0 11-4 0 2 2 0 014 0zm8 2a2 2 0 100-4 2 2 0 000 4z" fill="currentColor"/></svg>
